X:465
T:B465-  Thursday in the Morn
Q:1/4=120
L:1/4
M:4/4
K:G
G/A/ B/c/d3/2d/|e(d/c/)B3/2c/|dG/G/GG/G/|\
G/B/ A/G/A3/2D/|G/A/ B/c/d3/2d/|egd3/2B/|e/d/ c/B/A(G/F/)|\
E3/2D/D2|D/E/ F/G/A3/2G/|A/B/ A/B/ A3/2G/|G/A/ B/c/B3/2A/|\
G/A/ B/c/B3/2A/|e/^d/ e/f/^d3/2e/|eB3/4c/4dA3/4B/4|\
cG3/4A/4 B/d/ c/B/|A3/2B/GB3/4c/4|dA3/4B/4cG3/4A/4|\
B/d/ c/B/A3/2G/|G4|]
